images/location.svg

<svg width="28" height="39" viewBox="0 0 28 39" fill="none" xmlns="http://www.w3.org/2000/svg">
<path fill-rule="evenodd" clip-rule="evenodd" d="M11.2886 0.238614C11.5692 0.183921 12.0501 0.109032 12.3574 0.0723121C12.6646 0.035544 13.3753 0.00312425 13.9365 0.000273636C14.572 -0.00296351 15.1939 0.022692 15.5851 0.068157C15.9306 0.108356 16.4799 0.194937 16.8058 0.260598C17.1316 0.32621 17.6577 0.457967 17.9748 0.553438C18.2919 0.648861 18.8027 0.824537 19.11 0.94378C19.4172 1.06302 19.9965 1.32885 20.3973 1.53453C20.7981 1.74021 21.3446 2.05059 21.6118 2.22429C21.879 2.39793 22.3479 2.73382 22.6539 2.97071C22.9599 3.20756 23.496 3.684 23.8454 4.02945C24.1947 4.37491 24.6644 4.88584 24.8891 5.16487C25.1139 5.44389 25.492 5.9657 25.7293 6.32444C25.9667 6.68318 26.3326 7.32457 26.5424 7.74975C26.7521 8.17493 27.0037 8.72804 27.1013 8.97885C27.199 9.2297 27.352 9.68773 27.4415 9.99676C27.5309 10.3057 27.659 10.818 27.7261 11.1351C27.7932 11.4522 27.8822 12.0051 27.924 12.3639C27.9693 12.7534 28 13.4205 28 14.02C28 14.5826 27.9674 15.3334 27.9257 15.7277C27.8849 16.1147 27.7967 16.7283 27.7297 17.0912C27.6629 17.4541 27.5304 18.0663 27.4355 18.4516C27.3405 18.837 27.1199 19.5871 26.9452 20.1185C26.7705 20.65 26.4904 21.4218 26.3227 21.8337C26.155 22.2456 25.9043 22.8317 25.7655 23.1361C25.6267 23.4405 25.3611 23.9914 25.1753 24.3602C24.9895 24.7291 24.66 25.3497 24.4432 25.7394C24.2263 26.129 23.8311 26.8066 23.5649 27.2451C23.2987 27.6835 22.791 28.4771 22.4367 29.0086C22.0825 29.5401 21.5145 30.3554 21.1746 30.8204C20.8347 31.2855 20.2926 32.0029 19.9699 32.4148C19.6472 32.8267 19.0192 33.5986 18.5744 34.13C18.1295 34.6615 17.4513 35.4442 17.0673 35.8694C16.6832 36.2946 16.0592 36.9577 15.6807 37.343C15.3022 37.7283 14.7721 38.2588 14.5028 38.5218L14.013 39L13.5319 38.5588C13.2672 38.3161 12.7253 37.7847 12.3275 37.3778C11.9298 36.9709 11.3087 36.3128 10.9473 35.9155C10.586 35.5181 10.0202 34.8796 9.6902 34.4965C9.3601 34.1135 8.78973 33.4261 8.42266 32.9691C8.05559 32.512 7.55964 31.8796 7.32058 31.5638C7.08147 31.248 6.67694 30.696 6.42166 30.3373C6.16637 29.9785 5.68393 29.2719 5.3496 28.767C5.01527 28.2621 4.54609 27.5229 4.30698 27.1243C4.06792 26.7257 3.73996 26.1604 3.57819 25.8681C3.41647 25.5758 3.07281 24.9161 2.81456 24.402C2.55627 23.8881 2.18453 23.0945 1.98847 22.6385C1.7924 22.1826 1.52846 21.5269 1.40196 21.1815C1.27546 20.836 1.07589 20.249 0.958478 19.8769C0.84106 19.5049 0.669623 18.8961 0.577515 18.5241C0.485408 18.1521 0.35604 17.5542 0.289972 17.1954C0.223903 16.8367 0.131262 16.2279 0.0840912 15.8426C0.0221034 15.3365 -0.00121463 14.8 4.84398e-05 13.91C0.00145725 12.8907 0.020209 12.557 0.108721 11.9774C0.167551 11.592 0.283608 10.9941 0.366631 10.6487C0.449605 10.3032 0.611084 9.7488 0.725441 9.41663C0.839797 9.08447 1.01289 8.62788 1.11014 8.40201C1.20735 8.17613 1.41503 7.7482 1.57165 7.45106C1.72827 7.15397 1.97156 6.73 2.11225 6.50891C2.25293 6.28787 2.54767 5.86786 2.76715 5.57555C2.98668 5.28324 3.36298 4.82448 3.6034 4.55609C3.84387 4.2877 4.26681 3.866 4.54337 3.61896C4.81989 3.37193 5.26269 3.00652 5.52735 2.80702C5.79202 2.60748 6.22923 2.30507 6.49895 2.13495C6.76866 1.96483 7.28443 1.67726 7.64514 1.49583C8.00584 1.31441 8.55237 1.06655 8.85963 0.944939C9.1669 0.823377 9.72435 0.637121 10.0984 0.53102C10.4725 0.424919 11.0081 0.293356 11.2886 0.238614ZM15.0535 11.2978C15.2673 11.3522 15.6389 11.4932 15.8794 11.6113C16.1199 11.7295 16.4639 11.9474 16.644 12.0955C16.824 12.2438 17.0935 12.5115 17.2429 12.6906C17.3942 12.8719 17.6187 13.2302 17.7495 13.4993C17.8788 13.765 18.0237 14.1346 18.0717 14.3207C18.1342 14.5634 18.159 14.8429 18.1593 15.3111C18.1597 15.8419 18.1397 16.0334 18.0516 16.3397C17.992 16.5467 17.8799 16.8552 17.8024 17.0252C17.7249 17.1952 17.5897 17.439 17.5019 17.5668C17.4142 17.6947 17.2647 17.8937 17.1696 18.0091C17.0745 18.1244 16.8379 18.3465 16.6439 18.5025C16.4498 18.6586 16.0891 18.8849 15.8423 19.0054C15.5955 19.126 15.2515 19.2627 15.0778 19.3092C14.839 19.3732 14.5726 19.3938 13.9848 19.3938C13.3055 19.3938 13.1616 19.3795 12.8432 19.2805C12.6428 19.2182 12.2913 19.0712 12.062 18.9537C11.8327 18.8363 11.4926 18.6125 11.3063 18.4565C11.1199 18.3005 10.844 18.0126 10.6933 17.8169C10.5425 17.6211 10.3324 17.2762 10.2264 17.0504C10.1204 16.8246 9.99786 16.5094 9.95413 16.3499C9.91036 16.1905 9.86173 15.8268 9.84609 15.5416C9.82836 15.2193 9.84051 14.8813 9.8782 14.6478C9.91158 14.4413 10.0021 14.0997 10.0794 13.8886C10.1567 13.6775 10.3057 13.3613 10.4104 13.1859C10.5153 13.0104 10.7478 12.7091 10.9272 12.5164C11.1066 12.3237 11.3871 12.0718 11.5504 11.9566C11.7137 11.8414 11.9792 11.6814 12.1405 11.6011C12.3017 11.5207 12.5928 11.4069 12.7873 11.3481C12.9818 11.2894 13.2543 11.2233 13.3928 11.2014C13.5314 11.1794 13.8743 11.1699 14.1548 11.1802C14.4468 11.1911 14.8311 11.2413 15.0535 11.2978Z" fill="white"/>
</svg>

<svg width="28" height="39" fill="none" xmlns="http://www.w3.org/2000/svg"><path fill-rule="evenodd" clip-rule="evenodd" d="M11.289.239c.28-.055.761-.13 1.068-.167A18.07 18.07 0 0 1 13.937 0a15.28 15.28 0 0 1 1.648.068c.346.04.895.127 1.22.193.327.065.853.197 1.17.292.317.096.828.272 1.135.39a16.519 16.519 0 0 1 2.502 1.282c.267.173.736.509 1.042.746.306.237.842.713 1.191 1.058.35.346.82.857 1.044 1.136.225.279.603.8.84 1.16.238.358.604 1 .813 1.425.21.425.462.978.56 1.229.097.25.25.709.34 1.018.089.309.217.821.284 1.138.067.317.156.87.198 1.229.045.39.076 1.056.076 1.656a20.1 20.1 0 0 1-.074 1.708c-.041.387-.13 1-.196 1.363-.067.363-.2.975-.294 1.36a28.404 28.404 0 0 1-1.113 3.383c-.168.412-.419.998-.558 1.302a42.77 42.77 0 0 1-.59 1.224c-.186.37-.515.99-.732 1.38a57.347 57.347 0 0 1-.878 1.505 60.65 60.65 0 0 1-1.128 1.764 61.825 61.825 0 0 1-1.262 1.811 72.43 72.43 0 0 1-1.205 1.595 74.759 74.759 0 0 1-2.903 3.455 58.657 58.657 0 0 1-2.564 2.652l-.49.478-.481-.441a39.094 39.094 0 0 1-1.204-1.181 68.032 68.032 0 0 1-1.38-1.462 85.889 85.889 0 0 1-1.258-1.42 69.762 69.762 0 0 1-2.37-2.932 61.704 61.704 0 0 1-.898-1.227 70.178 70.178 0 0 1-1.072-1.57 53.7 53.7 0 0 1-1.043-1.643c-.24-.398-.567-.964-.729-1.256a53.419 53.419 0 0 1-.763-1.466 39.731 39.731 0 0 1-.827-1.764 35.202 35.202 0 0 1-.586-1.457 36.867 36.867 0 0 1-.444-1.304 27.03 27.03 0 0 1-.38-1.353 27.19 27.19 0 0 1-.288-1.329 27.513 27.513 0 0 1-.206-1.352C.022 15.336 0 14.8 0 13.91c.001-1.02.02-1.353.109-1.933.059-.385.175-.983.258-1.328.083-.346.244-.9.358-1.232.115-.333.288-.79.385-1.015a15.875 15.875 0 0 1 1.002-1.893c.14-.221.436-.641.655-.933.22-.293.596-.752.836-1.02s.664-.69.94-.937c.277-.247.72-.612.984-.812.265-.2.702-.502.972-.672.27-.17.785-.458 1.146-.64.36-.18.907-.428 1.215-.55A15.86 15.86 0 0 1 10.098.53c.374-.106.91-.238 1.19-.292Zm3.764 11.059c.214.054.586.195.826.313s.585.336.765.484c.18.149.45.416.599.596.151.18.376.54.507.808.129.266.274.636.322.822.062.242.087.522.087.99 0 .53-.02.722-.107 1.029a6.02 6.02 0 0 1-.25.685c-.077.17-.212.414-.3.542a7.601 7.601 0 0 1-.332.442 4.517 4.517 0 0 1-.526.494 5.14 5.14 0 0 1-.802.502c-.247.121-.59.258-.764.304-.239.064-.505.085-1.093.085-.68 0-.823-.014-1.142-.113-.2-.063-.552-.21-.781-.327a4.89 4.89 0 0 1-.756-.498 4.924 4.924 0 0 1-.613-.64c-.15-.195-.36-.54-.467-.766a5.501 5.501 0 0 1-.272-.7 4.923 4.923 0 0 1-.108-.808 4.54 4.54 0 0 1 .032-.894c.034-.207.124-.548.201-.76.078-.21.227-.527.331-.702.105-.176.338-.477.517-.67.18-.192.46-.444.623-.56.164-.115.43-.275.59-.355a4.99 4.99 0 0 1 1.253-.4 5.25 5.25 0 0 1 .762-.02c.292.01.676.06.899.117Z" fill="#fff"/></svg>
